X:12
T:Ashover simple chords 39
M:3/4
L:1/8
K:Em
[e4G,4B,4D4] d2 | [B2G,2B,2D2]>A2 G2 | [A4A,4C4E4] B2 | [E6A,6C6E6] | [A4C,4E,4G,4] B2 |
[E4D,4F,4A,4] F2 | [G2G,2B,2D2] B2 e2 | [d6D,6F,6A,6] | [e4G,4B,4D4] d2 |
[B2G,2B,2D2]>A2 G2 | [A4A,4C4E4] B2 | [E6A,6C6E6] | [A4C,4E,4G,4] B2 |
[E4D,4F,4A,4] F2 | [G6G,6B,6D6] | [G,6B,6D6] | [g2E,2G,2B,2]>f2 e2 |
[f4D,4F,4A,4] d2 | [e2C,2E,2G,2]>d2 c2 | [d4G,4B,4D4] B2 | [c4C,4E,4G,4] e2 |
[d4G,4B,4D4] B2 | [B4A,4C4E4] E2 | [BD,F,A,]d5 | [g2E,2G,2B,2]>f2 e2 |
[f4D,4F,4A,4] d2 | [e2C,2E,2G,2]>d2 c2 | [d4E,4^G,4B,4] B2 | [c4A,4C4E4] e2 |
[e2C,2E,2G,2]>d2 c2 | [B2D,2F,2A,2] c2 A2 | [G6G,6B,6D6] | [e4G,4B,4D4] d2 |
[B2G,2B,2D2]>A2 G2 | [A4A,4C4E4] B2 | [E6A,6C6E6] | [A4C,4E,4G,4] B2 |
[E4D,4F,4A,4] F2 | [G2G,2B,2D2] B2 e2 | [d6D,6F,6A,6] | [e4G,4B,4D4] d2 |
[B2G,2B,2D2]>A2 G2 | [A4A,4C4E4] B2 | [E6A,6C6E6] | [A4C,4E,4G,4] B2 |
[E4D,4F,4A,4] F2 | [G6G,6B,6D6] | [G,6B,6D6] | [g2E,2G,2B,2]>f2 e2 |
[f4D,4F,4A,4] d2 | [e2C,2E,2G,2]>d2 c2 | [d4G,4B,4D4] B2 | [c4C,4E,4G,4] e2 |
[d4G,4B,4D4] B2 | [B4A,4C4E4] E2 | [BD,F,A,]d5 | [g2E,2G,2B,2]>f2 e2 |
[f4D,4F,4A,4] d2 | [e2C,2E,2G,2]>d2 c2 | [d4E,4^G,4B,4] B2 | [c4A,4C4E4] e2 |
[e2C,2E,2G,2]>d2 c2 | [B2D,2F,2A,2] c2 A2 | [G6G,6B,6D6] |


